symbols/web/home/materialsymbolsoutlined/home_wght600grad200_40px.svg

<svg xmlns="http://www.w3.org/2000/svg" height="40" width="40"><path d="M5.708 36V14.542l14.334-10.75 14.291 10.75V36H22.417V24.292h-4.834V36Zm4-4h3.834V20.25h12.875V32h3.875V16.583l-10.25-7.75-10.334 7.75ZM20 20.417Z"/></svg>

<svg xmlns="http://www.w3.org/2000/svg" height="40" width="40"><path d="M5.708 36V14.542L20.042 3.792L34.333 14.542V36H22.417V24.292H17.583V36ZM9.708 32H13.542V20.25H26.417V32H30.292V16.583L20.042 8.833L9.708 16.583ZM20 20.417Z"/></svg>
